X:17221
T:The Smith's a Gallant Fireman
N:derived from the old Border song "Mary Scott"
G:fiddle strathspey
M:4/4
L:1/8
K:D
% D major/mixolydian hexatonic
D2 D>F A<AA>F|A>Bd>A F2E>D|E2 E>G BA|d>fe>d B2B<d|
D2 D>F A<AA>F|A>Bd>A F2E>D|G>BGAF<A|E>FG>A B2A2:|
d>ef>e dA|B>Ad>A F2E>D|e2 e>f e2 e>f|g>fe>d B2A2 |
d>ef>e d2 d>A|B>Ad>A F2E>D|G>BGAF<A|E>FG>A B2A2:|
